src/16/actions/view-right-new.svg

<svg xmlns="http://www.w3.org/2000/svg" viewBox="0 0 16 16"><path d="M2 2v12h12V2H2zm1 2h2v9H3V4zm3 0h7v9H6V4zm3 2v2H7v1h2v2h1V9h2V8h-2V6H9z" fill="currentColor" color="#5d656b"/></svg>

<svg xmlns="http://www.w3.org/2000/svg" viewBox="0 0 16 16">
  <defs id="defs3051">
    <style type="text/css" id="current-color-scheme">
      .ColorScheme-Text {
        color:#5d656b;
      }
      </style>
  </defs>
 <path style="fill:currentColor;fill-opacity:1;stroke:none" 
       d="M 2 2 L 2 14 L 14 14 L 14 2 L 2 2 z M 3 4 L 5 4 L 5 13 L 3 13 L 3 4 z M 6 4 L 13 4 L 13 13 L 6 13 L 6 4 z M 9 6 L 9 8 L 7 8 L 7 9 L 9 9 L 9 11 L 10 11 L 10 9 L 12 9 L 12 8 L 10 8 L 10 6 L 9 6 z "
     class="ColorScheme-Text"
     />
</svg>
